X:7001
T:Gairsay
R:March
C:Trad.
O:Orkney, Scotland
M:4/4
L:1/8
Q:1/4=160
K:D
D2E2|"D"F3G "A7"F2E2|"D"E2D2 F2A2|d3e d2c2|"G"B4 "A7"B2c2|
"D"d3e d2B2|1 "D"A2F2 F2G2|A3B "A7"A2F2|"D"E4:|2 A2F2 "D"F2A2|"Em"G2AG "A7"F2E2|"D"D4||:
c2d2|"A7"e3f e2d2|c2A2 d2e2|"D"f3g f2e2|d4 d2c2|"G"B3A B2c2|d3e d2B2|"D"A3B A2F2|"A"E4 D2E2|
"D"F3G "A7"F2E2|"D"E2D2 F2A2|d3e d2c2|"G"B6 "A7"c2|"D"d3e "G"d2B2|"D"A2F2 F2A2|"Em"G2AG "A7"F2E2|"D"D4:|
